resources/svg/chat-dots-duotone.svg

<svg xmlns="http://www.w3.org/2000/svg" viewBox="0 0 256.00098 256.00098" fill="currentColor"><g opacity="0.2"><path d="M77.98509,201.34409,45.14832,228.94793a8,8,0,0,1-13.14783-6.12372V64.00049a8,8,0,0,1,8-8h176a8,8,0,0,1,8,8v128a8,8,0,0,1-8,8H81.67142Z"/></g><g><path d="M82.49951,208.00049h133.501a16.018,16.018,0,0,0,16-16v-128a16.018,16.018,0,0,0-16-16h-176a16.018,16.018,0,0,0-16,16V222.82422a15.85,15.85,0,0,0,9.24414,14.5039,16.07979,16.07979,0,0,0,6.79785,1.52149,15.88972,15.88972,0,0,0,10.25293-3.77783l32.20313-27.07129m133.502-16H82.49951A16.02834,16.02834,0,0,0,72.20459,195.752l-.001.001L40.00049,222.81885V64.00049h176Z"/><circle cx="128.00049" cy="128.00098" r="12"/><circle cx="80.00049" cy="128.00098" r="12"/><circle cx="176.00049" cy="128.00098" r="12"/></g></svg>

<svg xmlns="http://www.w3.org/2000/svg" viewBox="0 0 256 256" fill="currentColor"><g opacity="0.2"><path d="M78,201.3,45.1,228.9A8,8,0,0,1,32,222.8V64a8,8,0,0,1,8-8H216a8,8,0,0,1,8,8V192a8,8,0,0,1-8,8H81.7Z"/></g><path d="M82.5,208H216a16,16,0,0,0,16-16V64a16,16,0,0,0-16-16H40A16,16,0,0,0,24,64V222.8a15.7,15.7,0,0,0,9.2,14.5,15.1,15.1,0,0,0,6.8,1.6,16,16,0,0,0,10.3-3.8L82.5,208M216,192H82.5a15.6,15.6,0,0,0-10.3,3.8h0L40,222.8V64H216Z"/><circle cx="128" cy="128" r="12"/><circle cx="80" cy="128" r="12"/><circle cx="176" cy="128" r="12"/></svg>
